learn-bizapps-pr/achievements/modern-analytics-data-modeling.svg

<svg width="103" height="103" viewBox="0 0 103 103" fill="none" xmlns="http://www.w3.org/2000/svg">
<path d="M51.3769 98.2216C25.5269 98.2216 4.56689 77.2716 4.56689 51.4116C4.56689 25.5516 25.5269 4.60156 51.3769 4.60156C77.2269 4.60156 98.1869 25.5616 98.1869 51.4116C98.1869 77.2616 77.2269 98.2216 51.3769 98.2216Z" fill="url(#paint0_linear_1223:1084)"/>
<path fill-rule="evenodd" clip-rule="evenodd" d="M97.2771 51.4115C97.2771 76.7615 76.7271 97.3115 51.3771 97.3115C26.0271 97.3115 5.47706 76.7615 5.47706 51.4115C5.47706 26.0615 26.0271 5.51149 51.3771 5.51149C76.7271 5.51149 97.2771 26.0615 97.2771 51.4115ZM51.3771 1.77148C78.7971 1.77148 101.017 23.9915 101.017 51.4115C101.017 78.8315 78.7871 101.051 51.3771 101.051C23.9571 101.051 1.73706 78.8215 1.73706 51.4115C1.73706 23.9915 23.9571 1.77148 51.3771 1.77148Z" fill="#F2F1F0"/>
<path fill-rule="evenodd" clip-rule="evenodd" d="M94.4669 51.412C94.4669 75.212 75.1769 94.502 51.3769 94.502C27.5769 94.502 8.28687 75.212 8.28687 51.412C8.28687 27.612 27.5769 8.32204 51.3769 8.32204C75.1769 8.32204 94.4669 27.612 94.4669 51.412ZM51.3769 4.58203C77.2369 4.58203 98.2069 25.552 98.2069 51.412C98.2069 77.272 77.2369 98.2421 51.3769 98.2421C25.5169 98.2421 4.54688 77.272 4.54688 51.412C4.54687 25.552 25.5069 4.58203 51.3769 4.58203Z" fill="url(#paint1_linear_1223:1084)"/>
<path d="M50.8694 31.0673C48.0994 31.0673 45.8394 28.7973 45.8394 26.0073C45.8394 23.2173 48.0994 20.9473 50.8694 20.9473C53.6394 20.9473 55.8994 23.2173 55.8994 26.0073C55.8994 28.7973 53.6394 31.0673 50.8694 31.0673ZM50.8694 22.9473C49.1994 22.9473 47.8394 24.3173 47.8394 26.0073C47.8394 27.6973 49.1994 29.0673 50.8694 29.0673C52.5394 29.0673 53.8994 27.6973 53.8994 26.0073C53.8994 24.3173 52.5394 22.9473 50.8694 22.9473Z" fill="url(#paint2_linear_1223:1084)"/>
<path d="M63.7393 79.1556H38.6393L35.9993 84.0756L34.2393 83.1256L41.5493 69.5156L43.2993 70.4756L39.7093 77.1556H62.6693L59.0793 70.4756L60.8393 69.5256L68.1493 83.1356L66.3893 84.0856L63.7393 79.1556Z" fill="url(#paint3_linear_1223:1084)"/>
<path d="M78.3993 31.416H24.0093V67.976H78.3993V31.416Z" fill="url(#paint4_linear_1223:1084)"/>
<path d="M23.2993 25.9961H79.0893C80.1893 25.9961 81.0893 26.8961 81.0893 27.9961V30.0861C81.0893 31.1861 80.1893 32.0861 79.0893 32.0861H23.2993C22.1993 32.0861 21.2993 31.1861 21.2993 30.0861V27.9961C21.2993 26.8961 22.1993 25.9961 23.2993 25.9961Z" fill="url(#paint5_linear_1223:1084)"/>
<path d="M22.9893 67.207H79.3893C80.3193 67.207 81.0793 67.967 81.0793 68.897C81.0793 69.827 80.3193 70.587 79.3893 70.587H22.9893C22.0593 70.597 21.2993 69.837 21.2993 68.907C21.2993 67.967 22.0593 67.207 22.9893 67.207Z" fill="url(#paint6_linear_1223:1084)"/>
<path d="M78.3993 31.416H24.0093V67.976H78.3993V31.416Z" fill="url(#paint7_linear_1223:1084)"/>
<path d="M23.2993 25.9961H79.0893C80.1893 25.9961 81.0893 26.8961 81.0893 27.9961V30.0861C81.0893 31.1861 80.1893 32.0861 79.0893 32.0861H23.2993C22.1993 32.0861 21.2993 31.1861 21.2993 30.0861V27.9961C21.2993 26.8961 22.1993 25.9961 23.2993 25.9961Z" fill="url(#paint8_linear_1223:1084)"/>
<path d="M22.9893 67.207H79.3893C80.3193 67.207 81.0793 67.967 81.0793 68.897C81.0793 69.827 80.3193 70.587 79.3893 70.587H22.9893C22.0593 70.597 21.2993 69.837 21.2993 68.907C21.2993 67.967 22.0593 67.207 22.9893 67.207Z" fill="url(#paint9_linear_1223:1084)"/>
<g opacity="0.15">
<path opacity="0.15" d="M70.6982 35.4805H63.0682C62.604 35.4805 62.2266 35.858 62.2266 36.3221V40.9942C62.2266 41.4583 62.604 41.8358 63.0682 41.8358H70.7044C71.1685 41.842 71.546 41.4645 71.546 40.9942V36.3283C71.546 35.8518 71.1685 35.4805 70.6982 35.4805Z" fill="#1F1D20"/>
<path opacity="0.15" d="M70.6982 51.0312H63.0682C62.604 51.0312 62.2266 51.4087 62.2266 51.8728V56.5511C62.2266 57.0153 62.604 57.3927 63.0682 57.3927H70.7044C71.1685 57.3927 71.546 57.0153 71.546 56.5511V51.8852C71.546 51.4087 71.1685 51.0312 70.6982 51.0312Z" fill="#1F1D20"/>
<path opacity="0.15" d="M70.6982 43.2402H63.0682C62.604 43.2402 62.2266 43.6177 62.2266 44.0818V48.7539C62.2266 49.2181 62.604 49.5955 63.0682 49.5955H70.7044C71.1685 49.6017 71.546 49.2242 71.546 48.7539V44.0818C71.546 43.6177 71.1685 43.2402 70.6982 43.2402Z" fill="#1F1D20"/>
<path opacity="0.15" d="M70.6982 58.791H63.0682C62.604 58.791 62.2266 59.1685 62.2266 59.6326V64.3109C62.2266 64.775 62.604 65.1525 63.0682 65.1525H70.7044C71.1685 65.1525 71.546 64.775 71.546 64.3109V59.6388C71.546 59.1747 71.1685 58.791 70.6982 58.791Z" fill="#1F1D20"/>
</g>
<path fill-rule="evenodd" clip-rule="evenodd" d="M55.958 53.3125H66.5213V54.0125H55.958V53.3125Z" fill="#78787D"/>
<path fill-rule="evenodd" clip-rule="evenodd" d="M55.958 45.6387H66.5213V46.3387H55.958V45.6387Z" fill="#78787D"/>
<path fill-rule="evenodd" clip-rule="evenodd" d="M55.6079 38.3031C55.6079 38.1098 55.7646 37.9531 55.9579 37.9531H66.5212V38.6531H56.3079V60.9795H66.5212V61.6795H55.9579C55.7646 61.6795 55.6079 61.5228 55.6079 61.3295V38.3031Z" fill="#78787D"/>
<path d="M70.6982 34.9238H63.0682C62.604 34.9238 62.2266 35.3013 62.2266 35.7654V40.4375C62.2266 40.9016 62.604 41.2791 63.0682 41.2791H70.7044C71.1685 41.2853 71.546 40.9078 71.546 40.4375V35.7716C71.546 35.3013 71.1685 34.9238 70.6982 34.9238Z" fill="#84ECFD"/>
<path d="M70.6982 50.4746H63.0682C62.604 50.4746 62.2266 50.8521 62.2266 51.3162V55.9945C62.2266 56.4586 62.604 56.8361 63.0682 56.8361H70.7044C71.1685 56.8361 71.546 56.4586 71.546 55.9945V51.3286C71.546 50.8521 71.1685 50.4746 70.6982 50.4746Z" fill="#45CAF2"/>
<path d="M70.6982 42.6895H63.0682C62.604 42.6895 62.2266 43.0669 62.2266 43.5311V48.2032C62.2266 48.6673 62.604 49.0448 63.0682 49.0448H70.7044C71.1685 49.0509 71.546 48.6735 71.546 48.2032V43.5311C71.546 43.0669 71.1685 42.6895 70.6982 42.6895Z" fill="#50E6FF"/>
<path d="M70.6982 58.2402H63.0682C62.604 58.2402 62.2266 58.6177 62.2266 59.0818V63.7601C62.2266 64.2242 62.604 64.6017 63.0682 64.6017H70.7044C71.1685 64.6017 71.546 64.2242 71.546 63.7601V59.088C71.546 58.6239 71.1685 58.2402 70.6982 58.2402Z" fill="#32B0E7"/>
<path fill-rule="evenodd" clip-rule="evenodd" d="M42.3091 49.6914L55.9889 49.6914L55.9889 50.3914L42.3091 50.3914L42.3091 49.6914Z" fill="#78787D"/>
<path fill-rule="evenodd" clip-rule="evenodd" d="M48.4364 58.6959C48.4364 60.4975 44.6314 61.9505 39.9401 61.9505C35.2489 61.9505 31.4438 60.491 31.4438 58.6959C31.4438 56.8911 35.2489 55.4414 39.9401 55.4414C44.6379 55.4414 48.4364 56.9009 48.4364 58.6959Z" fill="black" fill-opacity="0.1028"/>
<path fill-rule="evenodd" clip-rule="evenodd" d="M48.42 53.3866C48.42 55.1458 44.628 56.5662 39.9531 56.5662C35.2781 56.5662 31.4861 55.1458 31.4861 53.3866C31.4861 51.6274 35.2781 50.207 39.9531 50.207C44.628 50.207 48.42 51.6274 48.42 53.3866Z" fill="#185A97"/>
<path d="M48.4108 41.4792C48.4108 43.3068 44.6285 44.7826 39.9535 44.7826C35.2884 44.7826 31.4963 43.3068 31.4963 41.4792C31.4931 39.6516 35.2754 38.1758 39.9535 38.1758C44.6285 38.1856 48.4108 39.6646 48.4108 41.4792Z" fill="white"/>
<path fill-rule="evenodd" clip-rule="evenodd" d="M39.9498 56.5233C35.2781 56.5233 31.4861 55.1094 31.4861 53.373V57.5788C31.4861 59.3185 35.2781 60.7291 39.9498 60.7291C44.6215 60.7291 48.4135 59.3152 48.4135 57.5788V53.373C48.4135 55.1094 44.6215 56.5233 39.9498 56.5233Z" fill="#45CAF2"/>
<path fill-rule="evenodd" clip-rule="evenodd" d="M39.9498 57.9145V59.3153C39.9498 59.716 39.6143 60.032 39.2103 60.0223C34.8774 59.8789 31.4763 58.5335 31.4763 56.8818V57.5887C31.4763 59.3284 35.2684 60.739 39.94 60.739C44.6117 60.739 48.4135 59.3251 48.4135 57.5887V54.0801C48.4135 55.7415 44.9701 57.1 40.6144 57.2304C40.256 57.2173 39.9498 57.5333 39.9498 57.9145Z" fill="#0078D4"/>
<path fill-rule="evenodd" clip-rule="evenodd" d="M39.9498 50.5585C35.2781 50.5585 31.4861 49.1446 31.4861 47.4082V51.614C31.4861 53.3537 35.2781 54.7643 39.9498 54.7643C44.6215 54.7643 48.4135 53.3504 48.4135 51.614V47.4082C48.4135 49.1479 44.6215 50.5585 39.9498 50.5585Z" fill="#C3F1FF"/>
<path fill-rule="evenodd" clip-rule="evenodd" d="M39.9498 51.9497V53.3505C39.9498 53.7512 39.6143 54.0672 39.2103 54.0574C34.8742 53.9174 31.4861 52.5686 31.4861 50.9169V51.6239C31.4861 53.3635 35.2684 54.7742 39.94 54.7742C44.6117 54.7742 48.4038 53.3603 48.4038 51.6239V48.1055C48.4038 49.7669 44.9701 51.1254 40.6144 51.2557C40.256 51.2655 39.9498 51.5685 39.9498 51.9497Z" fill="#32B0E7"/>
<path fill-rule="evenodd" clip-rule="evenodd" d="M48.3714 47.4413C48.3714 49.1907 44.6021 50.6014 39.9533 50.6014C35.3044 50.6014 31.5352 49.1875 31.5352 47.4413C31.5352 45.6951 35.3044 44.2812 39.9533 44.2812C44.6021 44.2812 48.3714 45.6919 48.3714 47.4413Z" fill="#BAC0C2"/>
<path d="M48.4266 47.4211C48.4266 49.1803 44.6346 50.604 39.9531 50.604C35.2717 50.604 31.4829 49.1803 31.4829 47.4211C31.4829 45.6619 35.275 44.2383 39.9564 44.2383C44.6378 44.2383 48.4266 45.6619 48.4266 47.4211Z" fill="#2195DC"/>
<path fill-rule="evenodd" clip-rule="evenodd" d="M39.9498 44.5936C35.2781 44.5936 31.4861 43.1798 31.4861 41.4434V45.6492C31.4861 47.3888 35.2781 48.7994 39.9498 48.7994C44.6215 48.7994 48.4135 47.3856 48.4135 45.6492V41.4434C48.4135 43.183 44.6215 44.5936 39.9498 44.5936Z" fill="white"/>
<path fill-rule="evenodd" clip-rule="evenodd" d="M39.9498 45.9848V47.3856C39.9498 47.7864 39.6143 48.1024 39.2103 48.0926C34.8774 47.9525 31.4763 46.6038 31.4763 44.9521V45.659C31.4763 47.3987 35.2684 48.8093 39.94 48.8093C44.6117 48.8093 48.4038 47.3954 48.4038 45.659V42.1504C48.4038 43.8119 44.9701 45.1704 40.6144 45.3007C40.256 45.3007 39.9498 45.6167 39.9498 45.9848Z" fill="#50E6FF"/>
<path fill-rule="evenodd" clip-rule="evenodd" d="M48.0326 41.4667C48.0326 43.2161 44.4164 44.6267 39.9402 44.6267C35.4738 44.6267 31.8479 43.2129 31.8479 41.4667C31.8479 39.7173 35.464 38.3066 39.9402 38.3066C44.4164 38.3164 48.0326 39.727 48.0326 41.4667Z" fill="#C3F1FF"/>
<defs>
<linearGradient id="paint0_linear_1223:1084" x1="49.603" y1="-13.3779" x2="53.585" y2="132.392" gradientUnits="userSpaceOnUse">
<stop stop-color="#00ABDE"/>
<stop offset="1" stop-color="#007ED8"/>
</linearGradient>
<linearGradient id="paint1_linear_1223:1084" x1="2.80728" y1="-20.2106" x2="98.3348" y2="120.671" gradientUnits="userSpaceOnUse">
<stop stop-color="#007ED8"/>
<stop offset="0.7065" stop-color="#002D4C"/>
</linearGradient>
<linearGradient id="paint2_linear_1223:1084" x1="43.6313" y1="11.0738" x2="70.5604" y2="66.6328" gradientUnits="userSpaceOnUse">
<stop stop-color="#007ED8"/>
<stop offset="0.7065" stop-color="#002D4C"/>
</linearGradient>
<linearGradient id="paint3_linear_1223:1084" x1="57.1065" y1="155.696" x2="45.7679" y2="16.5153" gradientUnits="userSpaceOnUse">
<stop stop-color="#007ED8"/>
<stop offset="0.7065" stop-color="#002D4C"/>
</linearGradient>
<linearGradient id="paint4_linear_1223:1084" x1="51.2042" y1="67.9758" x2="51.2042" y2="31.4158" gradientUnits="userSpaceOnUse">
<stop stop-color="#D2EBFF"/>
<stop offset="1" stop-color="#F0FFFD"/>
</linearGradient>
<linearGradient id="paint5_linear_1223:1084" x1="51.1943" y1="26.0096" x2="51.1943" y2="32.0916" gradientUnits="userSpaceOnUse">
<stop stop-color="#0099BE"/>
<stop offset="1" stop-color="#006E97"/>
</linearGradient>
<linearGradient id="paint6_linear_1223:1084" x1="51.1893" y1="67.2156" x2="51.1893" y2="70.596" gradientUnits="userSpaceOnUse">
<stop stop-color="#0099BE"/>
<stop offset="1" stop-color="#006E97"/>
</linearGradient>
<linearGradient id="paint7_linear_1223:1084" x1="51.2042" y1="67.9758" x2="51.2042" y2="31.4158" gradientUnits="userSpaceOnUse">
<stop stop-color="#D2EBFF"/>
<stop offset="1" stop-color="#F0FFFD"/>
</linearGradient>
<linearGradient id="paint8_linear_1223:1084" x1="51.1943" y1="26.0096" x2="51.1943" y2="32.0916" gradientUnits="userSpaceOnUse">
<stop stop-color="#007ED8"/>
<stop offset="0.7065" stop-color="#002D4C"/>
</linearGradient>
<linearGradient id="paint9_linear_1223:1084" x1="51.1893" y1="67.2156" x2="51.1893" y2="70.596" gradientUnits="userSpaceOnUse">
<stop stop-color="#007ED8"/>
<stop offset="0.7065" stop-color="#002D4C"/>
</linearGradient>
</defs>
</svg>

<svg width="103" height="103" fill="none" xmlns="http://www.w3.org/2000/svg"><path d="M51.377 98.222c-25.85 0-46.81-20.95-46.81-46.81 0-25.86 20.96-46.81 46.81-46.81s46.81 20.96 46.81 46.81-20.96 46.81-46.81 46.81Z" fill="url(#a)"/><path fill-rule="evenodd" clip-rule="evenodd" d="M97.277 51.411c0 25.35-20.55 45.9-45.9 45.9-25.35 0-45.9-20.55-45.9-45.9 0-25.35 20.55-45.9 45.9-45.9 25.35 0 45.9 20.55 45.9 45.9Zm-45.9-49.64c27.42 0 49.64 22.22 49.64 49.64s-22.23 49.64-49.64 49.64c-27.42 0-49.64-22.23-49.64-49.64 0-27.42 22.22-49.64 49.64-49.64Z" fill="#F2F1F0"/><path fill-rule="evenodd" clip-rule="evenodd" d="M94.467 51.412c0 23.8-19.29 43.09-43.09 43.09-23.8 0-43.09-19.29-43.09-43.09 0-23.8 19.29-43.09 43.09-43.09 23.8 0 43.09 19.29 43.09 43.09Zm-43.09-46.83c25.86 0 46.83 20.97 46.83 46.83s-20.97 46.83-46.83 46.83-46.83-20.97-46.83-46.83 20.96-46.83 46.83-46.83Z" fill="url(#b)"/><path d="M50.87 31.067c-2.77 0-5.03-2.27-5.03-5.06 0-2.79 2.26-5.06 5.03-5.06 2.77 0 5.03 2.27 5.03 5.06 0 2.79-2.26 5.06-5.03 5.06Zm0-8.12c-1.67 0-3.03 1.37-3.03 3.06s1.36 3.06 3.03 3.06c1.67 0 3.03-1.37 3.03-3.06s-1.36-3.06-3.03-3.06Z" fill="url(#c)"/><path d="M63.74 79.156h-25.1L36 84.076l-1.76-.95 7.31-13.61 1.75.96-3.59 6.68h22.96l-3.59-6.68 1.76-.95 7.31 13.61-1.76.95-2.65-4.93Z" fill="url(#d)"/><path d="M78.4 31.416H24.01v36.56H78.4v-36.56Z" fill="url(#e)"/><path d="M23.3 25.996h55.79c1.1 0 2 .9 2 2v2.09c0 1.1-.9 2-2 2H23.3c-1.1 0-2-.9-2-2v-2.09c0-1.1.9-2 2-2Z" fill="url(#f)"/><path d="M22.99 67.207h56.4c.93 0 1.69.76 1.69 1.69 0 .93-.76 1.69-1.69 1.69h-56.4a1.68 1.68 0 0 1-1.69-1.68c0-.94.76-1.7 1.69-1.7Z" fill="url(#g)"/><path d="M78.4 31.416H24.01v36.56H78.4v-36.56Z" fill="url(#h)"/><path d="M23.3 25.996h55.79c1.1 0 2 .9 2 2v2.09c0 1.1-.9 2-2 2H23.3c-1.1 0-2-.9-2-2v-2.09c0-1.1.9-2 2-2Z" fill="url(#i)"/><path d="M22.99 67.207h56.4c.93 0 1.69.76 1.69 1.69 0 .93-.76 1.69-1.69 1.69h-56.4a1.68 1.68 0 0 1-1.69-1.68c0-.94.76-1.7 1.69-1.7Z" fill="url(#j)"/><g opacity=".15" fill="#1F1D20"><path opacity=".15" d="M70.698 35.48h-7.63a.842.842 0 0 0-.841.842v4.672c0 .464.377.842.841.842h7.636a.835.835 0 0 0 .842-.842v-4.666a.841.841 0 0 0-.848-.848ZM70.698 51.031h-7.63a.842.842 0 0 0-.841.842v4.678c0 .464.377.842.841.842h7.636a.842.842 0 0 0 .842-.842v-4.666a.847.847 0 0 0-.848-.854ZM70.698 43.24h-7.63a.842.842 0 0 0-.841.842v4.672c0 .464.377.842.841.842h7.636a.835.835 0 0 0 .842-.842v-4.672a.844.844 0 0 0-.848-.842ZM70.698 58.791h-7.63a.842.842 0 0 0-.841.842v4.678c0 .464.377.841.841.841h7.636a.843.843 0 0 0 .842-.841v-4.672a.85.85 0 0 0-.848-.848Z"/></g><path fill-rule="evenodd" clip-rule="evenodd" d="M55.958 53.313h10.563v.7H55.958v-.7ZM55.958 45.639h10.563v.7H55.958v-.7Z" fill="#78787D"/><path fill-rule="evenodd" clip-rule="evenodd" d="M55.608 38.303a.35.35 0 0 1 .35-.35H66.52v.7H56.308V60.98H66.52v.7H55.958a.35.35 0 0 1-.35-.35V38.303Z" fill="#78787D"/><path d="M70.698 34.924h-7.63a.842.842 0 0 0-.841.841v4.672c0 .465.377.842.841.842h7.636a.835.835 0 0 0 .842-.842v-4.665a.845.845 0 0 0-.848-.848Z" fill="#84ECFD"/><path d="M70.698 50.475h-7.63a.842.842 0 0 0-.841.841v4.678c0 .465.377.842.841.842h7.636a.843.843 0 0 0 .842-.841v-4.666a.847.847 0 0 0-.848-.854Z" fill="#45CAF2"/><path d="M70.698 42.69h-7.63a.842.842 0 0 0-.841.841v4.672c0 .464.377.842.841.842h7.636a.835.835 0 0 0 .842-.842v-4.672a.844.844 0 0 0-.848-.841Z" fill="#50E6FF"/><path d="M70.698 58.24h-7.63a.842.842 0 0 0-.841.842v4.678c0 .464.377.842.841.842h7.636a.843.843 0 0 0 .842-.842v-4.672a.85.85 0 0 0-.848-.848Z" fill="#32B0E7"/><path fill-rule="evenodd" clip-rule="evenodd" d="M42.31 49.691h13.679v.7h-13.68v-.7Z" fill="#78787D"/><path fill-rule="evenodd" clip-rule="evenodd" d="M48.436 58.696c0 1.802-3.805 3.255-8.496 3.255-4.691 0-8.496-1.46-8.496-3.255 0-1.805 3.805-3.255 8.496-3.255 4.698 0 8.496 1.46 8.496 3.255Z" fill="#000" fill-opacity=".103"/><path fill-rule="evenodd" clip-rule="evenodd" d="M48.42 53.387c0 1.759-3.792 3.18-8.467 3.18-4.675 0-8.467-1.421-8.467-3.18 0-1.76 3.792-3.18 8.467-3.18 4.675 0 8.467 1.42 8.467 3.18Z" fill="#185A97"/><path d="M48.41 41.48c0 1.827-3.781 3.303-8.456 3.303-4.666 0-8.458-1.476-8.458-3.304-.003-1.827 3.78-3.303 8.457-3.303 4.675.01 8.458 1.489 8.458 3.303Z" fill="#fff"/><path fill-rule="evenodd" clip-rule="evenodd" d="M39.95 56.523c-4.672 0-8.464-1.414-8.464-3.15v4.206c0 1.74 3.792 3.15 8.464 3.15 4.671 0 8.463-1.414 8.463-3.15v-4.206c0 1.736-3.791 3.15-8.463 3.15Z" fill="#45CAF2"/><path fill-rule="evenodd" clip-rule="evenodd" d="M39.95 57.914v1.401c0 .401-.336.717-.74.707-4.333-.143-7.734-1.489-7.734-3.14v.707c0 1.74 3.792 3.15 8.464 3.15 4.672 0 8.474-1.414 8.474-3.15V54.08c0 1.662-3.444 3.02-7.8 3.15-.358-.013-.664.303-.664.684Z" fill="#0078D4"/><path fill-rule="evenodd" clip-rule="evenodd" d="M39.95 50.559c-4.672 0-8.464-1.414-8.464-3.15v4.205c0 1.74 3.792 3.15 8.464 3.15 4.671 0 8.463-1.414 8.463-3.15v-4.206c0 1.74-3.791 3.15-8.463 3.15Z" fill="#C3F1FF"/><path fill-rule="evenodd" clip-rule="evenodd" d="M39.95 51.95v1.4c0 .401-.336.717-.74.707-4.336-.14-7.724-1.488-7.724-3.14v.707c0 1.74 3.782 3.15 8.454 3.15 4.672 0 8.464-1.414 8.464-3.15v-3.519c0 1.662-3.434 3.02-7.79 3.15a.693.693 0 0 0-.664.695Z" fill="#32B0E7"/><path fill-rule="evenodd" clip-rule="evenodd" d="M48.371 47.441c0 1.75-3.769 3.16-8.418 3.16-4.649 0-8.418-1.413-8.418-3.16 0-1.746 3.77-3.16 8.418-3.16 4.65 0 8.418 1.41 8.418 3.16Z" fill="#BAC0C2"/><path d="M48.427 47.421c0 1.76-3.792 3.183-8.474 3.183-4.681 0-8.47-1.424-8.47-3.183 0-1.76 3.792-3.183 8.473-3.183 4.682 0 8.47 1.424 8.47 3.183Z" fill="#2195DC"/><path fill-rule="evenodd" clip-rule="evenodd" d="M39.95 44.594c-4.672 0-8.464-1.414-8.464-3.15v4.205c0 1.74 3.792 3.15 8.464 3.15 4.671 0 8.463-1.413 8.463-3.15v-4.206c0 1.74-3.791 3.15-8.463 3.15Z" fill="#fff"/><path fill-rule="evenodd" clip-rule="evenodd" d="M39.95 45.985v1.4c0 .401-.336.717-.74.708-4.333-.14-7.734-1.49-7.734-3.14v.706c0 1.74 3.792 3.15 8.464 3.15 4.672 0 8.464-1.414 8.464-3.15V42.15c0 1.662-3.434 3.02-7.79 3.15-.358 0-.664.317-.664.685Z" fill="#50E6FF"/><path fill-rule="evenodd" clip-rule="evenodd" d="M48.033 41.467c0 1.75-3.617 3.16-8.093 3.16-4.466 0-8.092-1.414-8.092-3.16 0-1.75 3.616-3.16 8.092-3.16 4.476.01 8.093 1.42 8.093 3.16Z" fill="#C3F1FF"/><defs><linearGradient id="a" x1="49.603" y1="-13.378" x2="53.585" y2="132.392" gradientUnits="userSpaceOnUse"><stop stop-color="#00ABDE"/><stop offset="1" stop-color="#007ED8"/></linearGradient><linearGradient id="b" x1="2.807" y1="-20.211" x2="98.335" y2="120.671" gradientUnits="userSpaceOnUse"><stop stop-color="#007ED8"/><stop offset=".707" stop-color="#002D4C"/></linearGradient><linearGradient id="c" x1="43.631" y1="11.074" x2="70.56" y2="66.633" gradientUnits="userSpaceOnUse"><stop stop-color="#007ED8"/><stop offset=".707" stop-color="#002D4C"/></linearGradient><linearGradient id="d" x1="57.106" y1="155.696" x2="45.768" y2="16.515" gradientUnits="userSpaceOnUse"><stop stop-color="#007ED8"/><stop offset=".707" stop-color="#002D4C"/></linearGradient><linearGradient id="e" x1="51.204" y1="67.976" x2="51.204" y2="31.416" gradientUnits="userSpaceOnUse"><stop stop-color="#D2EBFF"/><stop offset="1" stop-color="#F0FFFD"/></linearGradient><linearGradient id="f" x1="51.194" y1="26.01" x2="51.194" y2="32.092" gradientUnits="userSpaceOnUse"><stop stop-color="#0099BE"/><stop offset="1" stop-color="#006E97"/></linearGradient><linearGradient id="g" x1="51.189" y1="67.216" x2="51.189" y2="70.596" gradientUnits="userSpaceOnUse"><stop stop-color="#0099BE"/><stop offset="1" stop-color="#006E97"/></linearGradient><linearGradient id="h" x1="51.204" y1="67.976" x2="51.204" y2="31.416" gradientUnits="userSpaceOnUse"><stop stop-color="#D2EBFF"/><stop offset="1" stop-color="#F0FFFD"/></linearGradient><linearGradient id="i" x1="51.194" y1="26.01" x2="51.194" y2="32.092" gradientUnits="userSpaceOnUse"><stop stop-color="#007ED8"/><stop offset=".707" stop-color="#002D4C"/></linearGradient><linearGradient id="j" x1="51.189" y1="67.216" x2="51.189" y2="70.596" gradientUnits="userSpaceOnUse"><stop stop-color="#007ED8"/><stop offset=".707" stop-color="#002D4C"/></linearGradient></defs></svg>
